X:1
T:Angloise ur J.J. Berghmans notbok
R:Engelska
O:Skåne
S:Johan Jacob Berghman
N: Ur: Johan Jacob Bruun / Johan Jacob Berghman, Notsamling av Ethel Wieslander
Z: Sven Midgren 2012-03-07
M:2/4
L:1/8
K:Am
|: A2 A^G | A2 B2 | cB A2 | B^GE2 | B2 BA | B2 c2 | dB ^G2 | A2 z2 :|
|: c'2 c'b | eg ec | df dB | ce cG | c'2 c'b | eg ec | df dB | c2 z2 :|

